X:15
T:Joys Of Quebec
S:Nottingham Music Database
M:4/4
R:reel
Q:1/2=120
L:1/8
K:A
ce | "A"eccc c2e2 | eccc c2e2 | fAeA dAcA | "E"dBBB B2d2 | dBBB B2d2 |
dBBB B2d2|1 e2ee gfeg | "A"fedf "E"e2 :|2 e2ee "D"fefg | "A"a6cd |: e2z2 "D"f2z2 |
"A"e3f e2AB | c2cc "D"d2dd | "A"c3d c2AB | cBA2 G2A2 | "E"B3c B2Bc|1 d2e2 gfeg |
"A"fedf "E"e2cd :|2 d2e2 fefg | "A"a6|]
